!!! OTL: Berkowitz100
!!! Chapter: 1
!!! Section: I
!!! Page: 25
!!! Mode: 
!!! Encoder: DJB
**kern
*staff1
*I"Piano
=1-
*clefF4
*k[]
*C:
*M4/4
4E\
4r
4G\
8r
8E\
=2
8F\L
8G\
8A\
8B\J
4c\
4r
=3
4E\
4r
4G\
8r
8E\
=4
8D/L
8C/
8BB/
8C/J
4D\
4r
=5
4G\
4r
4E\
8r
8C/
=6
8D\L
8E\
8F\
8G\J
4A\
4r
=7
2G\
4F\
4E\
=8
!!linebreak:original
8D\L
8C\
8D\
8E\J
4C/
4r
==
*-
